X:1
T:Title
%%score { ( 1 3 4 ) | ( 2 5 ) }
L:1/8
M:4/4
K:Bb
V:1 treble nm="Grand Piano"
V:3 treble 
V:4 treble 
V:2 bass 
V:5 bass 
V:1
 z4 z2[Q:1/4=100] [B,D]>[CE] | [DF]2 [B,D]2 [DF]2 [DB]2 | [Fd]6 [Ec]>[DB] | c2 F2 A2 c2 | %4
[M:3/4] [DB]6 |[M:1/4] [DB]>[FA] |[M:4/4] [EG]2 [GB]2 [GB]2 [EG]2 | [DF]6 [FA]>[FB] | %8
 [=Ec]2 [EG]2 [Ed]2 [Ec]2 |[M:3/4] c6[K:bass] |[M:1/4] D>[K:treble]E |[M:4/4] [DF]2 [DB]4 [FB]>c | %12
 d2 d4 A>B | c2 F2 G2 F2 |[M:3/4] [DF]6 |[M:1/4] D>[CE] |[M:4/4] [DF]2 [DB]4 [FB]>c | %17
 d2 f4 [Ge]>[Ge] | d3 c B2 [CA]2 |[M:3/4] B2- [EB-]2 [DB]2 |] %20
V:2
 z4 z2 [B,,F,]>[B,,F,] | [B,,B,]2 [B,,F,]2 [B,,B,]2 [B,,B,]2 | [B,,B,]6 [B,,B,]>[B,,B,] | %3
 [F,A,E]2 [F,A,E]2 [F,CE]2 [F,A,E]2 |[M:3/4] [B,,B,]6 |[M:1/4] [B,,B,]>[D,B,] | %6
[M:4/4] [E,B,]2 [E,E]2 [E,E]2 [E,B,]2 | [B,,B,]6 [E,C]>[D,B,] | [C,B,]2 [C,B,]2 [C,B,]2 [C,G,]2 | %9
[M:3/4] F2 z2 z2 |[M:1/4] [D,F,B,]>[C,F,C] |[M:4/4] [B,,B,]2 [B,,F,]4 [D,B,]>[K:treble][F,A,F] | %12
 [B,F]2 [B,F]4[K:bass] [F,CE]>[F,G,E] | [F,A,E]2 [F,A,E]2 [F,B,E]2 [F,A,E]2 | %14
[M:3/4] [B,,B,]2 F,2 B,,2 |[M:1/4] [B,,F,B,]>[B,,F,] | %16
[M:4/4] [B,,B,]2 [B,,F,]4 [D,B,]>[K:treble][F,A,F] | [B,F]2 [B,DF]4[K:bass] [E,B,]>[E,B,] | %18
 [F,B,F]3 [F,E] [F,D]2 [F,,F,]2 |[M:3/4] F,2 z2 z2 |] %20
V:3
 x8 | x8 | x8 | x8 |[M:3/4] x6 |[M:1/4] x2 |[M:4/4] x8 | x8 | x8 |[M:3/4] z2 z2 C2[K:bass] | %10
[M:1/4] x3/2[K:treble] x/ |[M:4/4] x8 | x8 | x8 |[M:3/4] z2 B,2 B,2 |[M:1/4] x2 |[M:4/4] x8 | x8 | %18
 x8 |[M:3/4] D2 z2 z2 |] %20
V:4
 x8 | x8 | x8 | x8 |[M:3/4] x6 |[M:1/4] x2 |[M:4/4] x8 | x8 | x8 |[M:3/4] z2 E2 z[K:bass] E, | %10
[M:1/4] x3/2[K:treble] x/ |[M:4/4] x8 | x8 | x8 |[M:3/4] x6 |[M:1/4] x2 |[M:4/4] x8 | x8 | x8 | %19
[M:3/4] x6 |] %20
V:5
 x8 | x8 | x8 | x8 |[M:3/4] x6 |[M:1/4] x2 |[M:4/4] x8 | x8 | x8 |[M:3/4] [F,A,]6 |[M:1/4] x2 | %11
[M:4/4] x15/2[K:treble] x/ | x6[K:bass] x2 | x8 |[M:3/4] x6 |[M:1/4] x2 | %16
[M:4/4] x15/2[K:treble] x/ | x6[K:bass] x2 | x8 |[M:3/4] B,,2- [B,,-G,]2 [B,,F,]2 |] %20

